X: 202
T:In domino confido / I trust in the Lord / Oculi ejus / His eyes
N: Derived from Jos1703-In_domino_confido.krn
C: Josquin des Prez
%%abc-version 2.0
%%abcx-abcm2ps-target-version 5.9.1 (29 Sep 2008)
%%abc-creator hum2abc beta
%%abcx-conversion-date 2019/02/12 16:15:48
%%abc-edited-by Jesse Rodin
%%abc-edited-by Victoria Chang
%%abcx-initial-encoding-date 2011/03/21/
%%humdrum-veritas 1500980635
%%humdrum-veritas-data 789667708
%%linebreak <none>
%%barnumbers 0
L: 1/4
M: 2/1
Q: 1/2=120
%%staves [1 2 3 4]
V: 1 clef=treble
V: 2 clef=treble-8
V: 3 clef=treble-8
V: 4 clef=bass
K: C
[V:1] G8 | 
[V:2] z4c4- | 
[V:3] z8 | 
[V:4] z8 | 
[V:1] c6B2 | 
[V:2] c4f4- | 
[V:3] z8 | 
[V:4] z8 | 
[V:1] A2G2A4 | 
[V:2] f2e2d2c2 | 
[V:3] z8 | 
[V:4] z8 | 
[V:1] G8- | 
[V:2] d4c4- | 
[V:3] G8 | 
[V:4] z4C,4- | 
[V:1] G4z4 | 
[V:2] c4z4 | 
[V:3] c6B2 | 
[V:4] C,4F,4- | 
[V:1] z8 | 
[V:2] z2c2d2e2- | 
[V:3] A2G2A4- | 
[V:4] F,2E,2D,2C,2- | 
[V:1] z4d4 | 
[V:2] edc4B2 | 
[V:3] A2G4F2 | 
[V:4] C,D,E,F,D,2D,2 | 
[V:1] e6e2 | 
[V:2] c6c2 | 
[V:3] G8 | 
[V:4] C,8- | 
[V:1] e8 | 
[V:2] c4z2G2 | 
[V:3] z8 | 
[V:4] C,8 | 
[V:1] c2d2e2f2 | 
[V:2] A2B2c2d2 | 
[V:3] z8 | 
[V:4] z8 | 
[V:1] e2c2d2B2 | 
[V:2] e2f2d2g2- | 
[V:3] z8 | 
[V:4] z8 | 
[V:1] A4G4- | 
[V:2] g2^f2g4 | 
[V:3] z8 | 
[V:4] z8 | 
[V:1] G4z2C2 | 
[V:2] z2G2c3d | 
[V:3] z8 | 
[V:4] z8 | 
[V:1] G3AB2c2 | 
[V:2] e2f2g2a2 | 
[V:3] z8 | 
[V:4] z8 | 
[V:1] d2e2d2e2- | 
[V:2] g2e2f2g2- | 
[V:3] z8 | 
[V:4] z8 | 
[V:1] edc4B2 | 
[V:2] gfe2d4 | 
[V:3] z8 | 
[V:4] z4z2G,,2 | 
[V:1] c4z4 | 
[V:2] c8 | 
[V:3] z2C2G3A | 
[V:4] C,3D,E,2F,2 | 
[V:1] z4z2G2 | 
[V:2] z8 | 
[V:3] B2c2d2e2 | 
[V:4] G,2A,2G,2E,2 | 
[V:1] A2G2B2c2 | 
[V:2] z8 | 
[V:3] d2e3dc2- | 
[V:4] F,2G,3F,E,2 | 
[V:1] d4e4- | 
[V:2] f4e2g2- | 
[V:3] c2B2c4- | 
[V:4] D,4C,4- | 
[V:1] e2c2d2e2- | 
[V:2] gfe2d2c2 | 
[V:3] c4B2A2 | 
[V:4] C,4z4 | 
[V:1] edc4B2 | 
[V:2] e4d4 | 
[V:3] c4G4 | 
[V:4] z8 | 
[V:1] c8 | 
[V:2] c4z4 | 
[V:3] z2c4c2- | 
[V:4] z4F,4- | 
[V:1] z8 | 
[V:2] z8 | 
[V:3] c4A2B2- | 
[V:4] F,2F,2F,2D,2 | 
[V:1] z8 | 
[V:2] z8 | 
[V:3] B2c4d2- | 
[V:4] E,4F,4 | 
[V:1] z4G4- | 
[V:2] z8 | 
[V:3] d2B4G2 | 
[V:4] G,4E,4 | 
[V:1] G2G2G4 | 
[V:2] c6c2 | 
[V:3] G4z4 | 
[V:4] C,8- | 
[V:1] E4F4 | 
[V:2] c4A4 | 
[V:3] z8 | 
[V:4] C,4z4 | 
[V:1] G4A4 | 
[V:2] B4c4 | 
[V:3] z4z2A2- | 
[V:4] z8 | 
[V:1] F4D4 | 
[V:2] d4B4 | 
[V:3] A2d4B2- | 
[V:4] D,4G,4 | 
[V:1] z4A4 | 
[V:2] G4z4 | 
[V:3] B2c4d2- | 
[V:4] E,4F,4 | 
[V:1] d4B4 | 
[V:2] d4g4 | 
[V:3] dcB4AG | 
[V:4] G,8 | 
[V:1] c4d4- | 
[V:2] e4f2g2- | 
[V:3] G4z4 | 
[V:4] C,4z4 | 
[V:1] d4G4- | 
[V:2] gfede4 | 
[V:3] G4c4 | 
[V:4] z4C,4 | 
[V:1] G4z2B2- | 
[V:2] d4z2d2- | 
[V:3] B4B4- | 
[V:4] G,4G,4- | 
[V:1] B2B2B4 | 
[V:2] d4B2GA | 
[V:3] B4d4- | 
[V:4] G,4G,4- | 
[V:1] B4z4 | 
[V:2] Bcd2e3c | 
[V:3] d2B2c2A2 | 
[V:4] G,4z2C2 | 
[V:1] z4c4 | 
[V:2] d2e4f2 | 
[V:3] G4z2c2 | 
[V:4] B,2G,2A,4 | 
[V:1] B2G2A2B2 | 
[V:2] g4f2d2 | 
[V:3] d2e2d4 | 
[V:4] G,2E,2F,2G,2 | 
[V:1] G2c4B2 | 
[V:2] e2c2d4 | 
[V:3] c2g2f2d2 | 
[V:4] C,2E,2F,2G,2 | 
[V:1] c4d4 | 
[V:2] c2g2f2d2 | 
[V:3] e2c4B2 | 
[V:4] C,2E,2F,2G,2 | 
[V:1] c4z4 | 
[V:2] e2c2g4- | 
[V:3] c8 | 
[V:4] C,4z2C,2 | 
[V:1] d8 | 
[V:2] g4g4 | 
[V:3] z4B4 | 
[V:4] G,4G,4 | 
[V:1] d2d2d4 | 
[V:2] g2g2g4 | 
[V:3] B2B2B4 | 
[V:4] G,8 | 
[V:1] [M:3/1]d4d4d4 | 
[V:2] [M:3/1]g4g4g4 | 
[V:3] [M:3/1]B4B4B4 | 
[V:4] [M:3/1]G,4G,4G,4 | 
[V:1] e8f4 | 
[V:2] g8z4 | 
[V:3] c8d4 | 
[V:4] C,8_B,,4 | 
[V:1] e4d8 | 
[V:2] g4f4a4 | 
[V:3] e4f8 | 
[V:4] C,4D,8 | 
[V:1] c8B4 | 
[V:2] g4f4d4 | 
[V:3] e4d8 | 
[V:4] E,4F,4G,4 | 
[V:1] [M:2/1]c8- | 
[V:2] [M:2/1]e8- | 
[V:3] [M:2/1]c8 | 
[V:4] [M:2/1]C,8 | 
[V:1] c4z4 | 
[V:2] e8 | 
[V:3] z4z2g2- | 
[V:4] z2C4C2 | 
[V:1] z8 | 
[V:2] z8 | 
[V:3] g2g2f2e2 | 
[V:4] B,4A,2C2- | 
[V:1] z8 | 
[V:2] z8 | 
[V:3] g4f2e2 | 
[V:4] C2B,2A,2G,2 | 
[V:1] z8 | 
[V:2] z8 | 
[V:3] d2c2f2f2 | 
[V:4] F,2E,2D,4 | 
[V:1] z4z2d2- | 
[V:2] z2g4g2 | 
[V:3] e4z4 | 
[V:4] C,4z4 | 
[V:1] d2d2c2B2 | 
[V:2] f4e2g2- | 
[V:3] z8 | 
[V:4] z8 | 
[V:1] d4c2B2 | 
[V:2] g2f2e2d2 | 
[V:3] z8 | 
[V:4] z8 | 
[V:1] A2G2c2c2 | 
[V:2] c2B2A4 | 
[V:3] z8 | 
[V:4] z8 | 
[V:1] B8 | 
[V:2] G8 | 
[V:3] d8 | 
[V:4] z4G,4 | 
[V:1] z4G4- | 
[V:2] z8 | 
[V:3] B3cd2e2 | 
[V:4] G,8 | 
[V:1] G4G4 | 
[V:2] B4B3c | 
[V:3] d2e4dc | 
[V:4] G,8 | 
[V:1] G4G4 | 
[V:2] d2e2d2g2- | 
[V:3] B3cd2e2- | 
[V:4] G,3A,B,2C2 | 
[V:1] A2c4BA | 
[V:2] g2fef2g^f | 
[V:3] edcBc4 | 
[V:4] A,8 | 
[V:1] B8 | 
[V:2] g8 | 
[V:3] d8- | 
[V:4] G,8- | 
[V:1] z2d4d2 | 
[V:2] z4g4 | 
[V:3] d8 | 
[V:4] G,8- | 
[V:1] d2d2d4 | 
[V:2] g2g2g2g2- | 
[V:3] z8 | 
[V:4] G,8 | 
[V:1] B4c4 | 
[V:2] g2e4f2- | 
[V:3] z8 | 
[V:4] z8 | 
[V:1] A2d4c2- | 
[V:2] f2defga2- | 
[V:3] z8 | 
[V:4] z8 | 
[V:1] c2B2A4 | 
[V:2] a2g4^f2 | 
[V:3] z4z2d2- | 
[V:4] z8 | 
[V:1] G8 | 
[V:2] g8 | 
[V:3] ddd2d2d2 | 
[V:4] G,3G,G,2G,2 | 
[V:1] z8 | 
[V:2] z8 | 
[V:3] B4c4 | 
[V:4] G,2E,4F,2- | 
[V:1] z8 | 
[V:2] z8 | 
[V:3] A2d4c2- | 
[V:4] F,2D,E,F,G,A,2- | 
[V:1] G4A4 | 
[V:2] z8 | 
[V:3] c2B2A4 | 
[V:4] A,2G,4^F,2 | 
[V:1] B6B2 | 
[V:2] z8 | 
[V:3] G8- | 
[V:4] G,4z4 | 
[V:1] c8 | 
[V:2] c4c2c2 | 
[V:3] G8 | 
[V:4] C,4C,2C,2 | 
[V:1] B8 | 
[V:2] d2e3dg2- | 
[V:3] z8 | 
[V:4] G,8 | 
[V:1] z4A4 | 
[V:2] g2^fe^f4 | 
[V:3] c4c2c2 | 
[V:4] A,8 | 
[V:1] B2d4cB | 
[V:2] g8 | 
[V:3] d4B4 | 
[V:4] G,8 | 
[V:1] A4G4 | 
[V:2] z4G4 | 
[V:3] c2d2e4 | 
[V:4] F,4E,4 | 
[V:1] z8 | 
[V:2] A4B4 | 
[V:3] f6ed | 
[V:4] D,8 | 
[V:1] c4c2c2 | 
[V:2] c6BA | 
[V:3] e4e4 | 
[V:4] C,4z2C,2 | 
[V:1] d2e2f4 | 
[V:2] B2c2d4 | 
[V:3] d2c4B2 | 
[V:4] G,2E,2D,4 | 
[V:1] e4e4 | 
[V:2] e2g3fed | 
[V:3] c8- | 
[V:4] C,4z2C,2- | 
[V:1] g4f4 | 
[V:2] edcBA4- | 
[V:3] c8- | 
[V:4] C,2C,2F,4 | 
[V:1] e3dcBc2- | 
[V:2] A2G2G4- | 
[V:3] c8- | 
[V:4] C,8- | 
[V:1] c2BAG2A2 | 
[V:2] G8- | 
[V:3] c8- | 
[V:4] C,8- | 
[V:1] E8 ||  
[V:2] G8 ||  
[V:3] c8 ||  
[V:4] C,8 ||  
[V:1] [M:2/1]c4c2c2 | 
[V:2] [M:2/1]z8 | 
[V:3] [M:2/1]c4f2e2 | 
[V:4] [M:2/1]z8 | 
[V:1] f4e4 | 
[V:2] z4c4 | 
[V:3] d4c4- | 
[V:4] z4C,4 | 
[V:1] z2g2f2d2 | 
[V:2] c2c2f4 | 
[V:3] c4z4 | 
[V:4] F,2E,2D,4 | 
[V:1] e2e2dcBA | 
[V:2] e4z4 | 
[V:3] z2g2f2d2 | 
[V:4] C,4z4 | 
[V:1] G2A4G2 | 
[V:2] z8 | 
[V:3] e2f4e2 | 
[V:4] z8 | 
[V:1] F4E4 | 
[V:2] z8 | 
[V:3] d4c2A2 | 
[V:4] z4z2C2 | 
[V:1] z8 | 
[V:2] z2g2f2d2 | 
[V:3] G4z4 | 
[V:4] B,2G,2A,2B,A, | 
[V:1] z8 | 
[V:2] edcBAGc2- | 
[V:3] z8 | 
[V:4] G,F,E,2F,2E,2 | 
[V:1] z4c4 | 
[V:2] c2B2A4 | 
[V:3] z4c4 | 
[V:4] D,4C,4- | 
[V:1] c2c2f4 | 
[V:2] G4z4 | 
[V:3] c2c2d4 | 
[V:4] C,4z4 | 
[V:1] e8 | 
[V:2] c4c2c2 | 
[V:3] c3BAGc2- | 
[V:4] C,4C,2C,2 | 
[V:1] z8 | 
[V:2] f4e4- | 
[V:3] c2B2c4- | 
[V:4] D,4C,4 | 
[V:1] z8 | 
[V:2] e4z4 | 
[V:3] c4z2g2 | 
[V:4] z2C2B,2G,2 | 
[V:1] z2c2B2G2 | 
[V:2] z4z2g2 | 
[V:3] e2c2d2ed | 
[V:4] A,4G,2E,2 | 
[V:1] A4G2E2 | 
[V:2] f2d2e4 | 
[V:3] cBA2B2cB | 
[V:4] F,4E,2C,2 | 
[V:1] F4E2CD | 
[V:2] d2B2c4- | 
[V:3] AGF2G2A2- | 
[V:4] D,4C,4- | 
[V:1] EFGABcd2- | 
[V:2] c4G3A | 
[V:3] A2G2g4- | 
[V:4] C,4z4 | 
[V:1] d2c4B2 | 
[V:2] B2c2G4 | 
[V:3] g2e2d4 | 
[V:4] z8 | 
[V:1] c8 | 
[V:2] c4z2c2- | 
[V:3] c8 | 
[V:4] z4F,3F, | 
[V:1] z8 | 
[V:2] ccc2c2e2 | 
[V:3] z8 | 
[V:4] F,2F,2A,2G,2 | 
[V:1] z8 | 
[V:2] d2c4f2- | 
[V:3] z8 | 
[V:4] F,8 | 
[V:1] z8 | 
[V:2] f2d4e2- | 
[V:3] z8 | 
[V:4] _B,4G,4 | 
[V:1] z8 | 
[V:2] edcBAGf2- | 
[V:3] z8 | 
[V:4] A,3G,F,E,D,2- | 
[V:1] z8 | 
[V:2] f2e4d2 | 
[V:3] z2G2A2B2 | 
[V:4] D,2E,2F,2G,2 | 
[V:1] z4G4- | 
[V:2] e4z4 | 
[V:3] c8- | 
[V:4] C,8 | 
[V:1] G4G4- | 
[V:2] e8 | 
[V:3] c8 | 
[V:4] z4C,4- | 
[V:1] G4G4 | 
[V:2] e4e4- | 
[V:3] c8 | 
[V:4] C,4C,4 | 
[V:1] G6G2 | 
[V:2] e4e4- | 
[V:3] c6c2 | 
[V:4] C,4C,4- | 
[V:1] G2G2c4- | 
[V:2] e2e2e4 | 
[V:3] c4c4 | 
[V:4] C,2C,2C,4 | 
[V:1] c4d2e2 | 
[V:2] f3ed2c2- | 
[V:3] c3BA2G2 | 
[V:4] F,4F,2E,2 | 
[V:1] f4e4 | 
[V:2] c2B2c2A2 | 
[V:3] d4G2e2- | 
[V:4] D,4C,2C2- | 
[V:1] z8 | 
[V:2] G4z4 | 
[V:3] e2d2c2B2 | 
[V:4] C2B,2A,2G,2 | 
[V:1] z8 | 
[V:2] z8 | 
[V:3] AGc4B2 | 
[V:4] F,2E,2D,4 | 
[V:1] z2e4d2 | 
[V:2] z2g4f2 | 
[V:3] c8 | 
[V:4] C,4z4 | 
[V:1] c2B2A2G2 | 
[V:2] e2d2c2B2 | 
[V:3] z4z2C2 | 
[V:4] z8 | 
[V:1] F2E2D4 | 
[V:2] AGc4B2 | 
[V:3] D2E2F2G2 | 
[V:4] z8 | 
[V:1] C4c4- | 
[V:2] c3defg2 | 
[V:3] C2C3DE2 | 
[V:4] z2C4B,2 | 
[V:1] c2B2A2G2 | 
[V:2] f2d4e2 | 
[V:3] F2G2D2G2 | 
[V:4] A,2G,2F,2E,2 | 
[V:1] F2E2D4 | 
[V:2] f2g3fd2 | 
[V:3] A2c4B2 | 
[V:4] D,2C,2G,4 | 
[V:1] [M:3/1]C12 | 
[V:2] [M:3/1]e8z4 | 
[V:3] [M:3/1]c12 | 
[V:4] [M:3/1]C,12- | 
[V:1] z12 | 
[V:2] g6f2e4 | 
[V:3] z4c6B2 | 
[V:4] C,8z4 | 
[V:1] z4z4c4- | 
[V:2] e8z4 | 
[V:3] A4A8 | 
[V:4] C6B,2A,4 | 
[V:1] c2B2A4A4- | 
[V:2] c6B2A4 | 
[V:3] z4F6E2 | 
[V:4] A,8z4 | 
[V:1] A4z4F4- | 
[V:2] A8z4 | 
[V:3] D4D8 | 
[V:4] F,6E,2D,4 | 
[V:1] F2E2D8 | 
[V:2] d8B4 | 
[V:3] A4B8 | 
[V:4] D,4G,8 | 
[V:1] G4F4D4 | 
[V:2] c4d4B4 | 
[V:3] G4A4G4 | 
[V:4] E,4F,4G,4 | 
[V:1] E8E4 | 
[V:2] G4c8 | 
[V:3] c6B2G4 | 
[V:4] E,4C,2D,2E,2F,2 | 
[V:1] D6E2F4- | 
[V:2] B8A4- | 
[V:3] G6F2D4 | 
[V:4] G,2A,2B,2C2D4 | 
[V:1] F4E4D4 | 
[V:2] A4G8 | 
[V:3] F4C4G4 | 
[V:4] C8B,4 | 
[V:1] C2D2E2F2G2A2 | 
[V:2] g12- | 
[V:3] A4c4c4 | 
[V:4] C4C,2D,2E,2F,2 | 
[V:1] B2c2d8 | 
[V:2] g12 | 
[V:3] B6c2d4 | 
[V:4] G,6A,2B,4 | 
[V:1] c8B2A2 | 
[V:2] g6e2^f4 | 
[V:3] e4c8 | 
[V:4] C4A,8 | 
[V:1] [M:2/1]B4z4 | 
[V:2] [M:2/1]g4z4 | 
[V:3] [M:2/1]d8 | 
[V:4] [M:2/1]G,8 | 
[V:1] A4G4 | 
[V:2] f4e4 | 
[V:3] z4c4 | 
[V:4] z4C,4 | 
[V:1] z4A4 | 
[V:2] z4f4 | 
[V:3] B4z4 | 
[V:4] G,4z4 | 
[V:1] G4z2G2 | 
[V:2] e4z2e2 | 
[V:3] c4B4 | 
[V:4] C,4G,4 | 
[V:1] G2G2A2G2 | 
[V:2] e2e2f2e2 | 
[V:3] c4z4 | 
[V:4] z8 | 
[V:1] A4F4 | 
[V:2] c4d4 | 
[V:3] z8 | 
[V:4] z8 | 
[V:1] G8 | 
[V:2] e8 | 
[V:3] c4c2c2 | 
[V:4] z2C,2C,2C,2 | 
[V:1] z2G2c4 | 
[V:2] z8 | 
[V:3] c2G2A2c2- | 
[V:4] F,2E,2F,2F,2 | 
[V:1] d4e3d/c/ | 
[V:2] z8 | 
[V:3] c2B2c4 | 
[V:4] D,4C,4 | 
[V:1] [M:3/1]B8c4 | 
[V:2] [M:3/1]z12 | 
[V:3] [M:3/1]d8c4 | 
[V:4] [M:3/1]G,8A,4 | 
[V:1] d4e6d2 | 
[V:2] d4c4e4 | 
[V:3] B4A4c4- | 
[V:4] B,4C4A,4- | 
[V:1] c8B4 | 
[V:2] f4g8 | 
[V:3] c4d8 | 
[V:4] A,4G,8 | 
[V:1] c8z4 | 
[V:2] e4f2e2d2c2 | 
[V:3] c8z4 | 
[V:4] C,4F,8 | 
[V:1] z12 | 
[V:2] c8B4 | 
[V:3] z12 | 
[V:4] E,4D,8 | 
[V:1] [M:2/1]z2G2G2G2 | 
[V:2] [M:2/1]c8 | 
[V:3] [M:2/1]z2e2e2e2 | 
[V:4] [M:2/1]C,4z4 | 
[V:1] A2G2A2B2 | 
[V:2] z4z2G2- | 
[V:3] f2e2f2d2 | 
[V:4] z8 | 
[V:1] c4z4 | 
[V:2] G2G2G4 | 
[V:3] c8 | 
[V:4] C,4C,2C,2 | 
[V:1] z8 | 
[V:2] A2G2A2B2 | 
[V:3] z8 | 
[V:4] F,2E,2F,2D,2 | 
[V:1] G4G2G2 | 
[V:2] c8 | 
[V:3] z2e2e2e2 | 
[V:4] C,4z4 | 
[V:1] A2G2A2B2 | 
[V:2] z4z2G2- | 
[V:3] f2e2f2d2 | 
[V:4] z8 | 
[V:1] c4z4 | 
[V:2] G2G2G4 | 
[V:3] c8 | 
[V:4] C,4C,2C,2 | 
[V:1] z8 | 
[V:2] A2G2A2B2 | 
[V:3] z8 | 
[V:4] F,2E,2F,2D,2 | 
[V:1] z8 | 
[V:2] c4G4 | 
[V:3] z2g4g2 | 
[V:4] C,4z2G,2- | 
[V:1] d4d2d2- | 
[V:2] z2d4d2 | 
[V:3] g4d4 | 
[V:4] G,2G,2G,4 | 
[V:1] d2A4c2- | 
[V:2] d4A4 | 
[V:3] f4c3d | 
[V:4] D,4F,4 | 
[V:1] c2G3ABc | 
[V:2] c4G3A | 
[V:3] efg4d2- | 
[V:4] C,3D,E,F,G,2- | 
[V:1] d4A3B | 
[V:2] Bcd4A2- | 
[V:3] d2f3ec2- | 
[V:4] G,2D,4F,2- | 
[V:1] cde2f2e2 | 
[V:2] ABc2F2G2 | 
[V:3] c4d2e2 | 
[V:4] F,2E,2D,2C,2 | 
[V:1] d2c4B2 | 
[V:2] D2E2C2G2- | 
[V:3] f2e4d2 | 
[V:4] B,,2C,2G,4 | 
[V:1] e4d2B2 | 
[V:2] GAc2B2d2 | 
[V:3] g4g3f | 
[V:4] C,4z2G,2 | 
[V:1] c4B2G2 | 
[V:2] c2e2d2g2- | 
[V:3] e2c2d2B2 | 
[V:4] A,2C2G,2B,2 | 
[V:1] A4B4 | 
[V:2] g2^f2g4- | 
[V:3] c4d2e2- | 
[V:4] A,4G,4- | 
[V:1] G4A4 | 
[V:2] g4z4 | 
[V:3] efg2c2f2 | 
[V:4] G,2E,2F,2D,2 | 
[V:1] G2c4B2 | 
[V:2] z4z2d2 | 
[V:3] e4d4 | 
[V:4] E,2C,2G,4 | 
[V:1] c8- | 
[V:2] e2c2g4 | 
[V:3] c4z2G2 | 
[V:4] C,8 | 
[V:1] c8- | 
[V:2] f4e3d | 
[V:3] A2F2c3B | 
[V:4] z8 | 
[V:1] c8- | 
[V:2] c2B2A4 | 
[V:3] A2E2F4 | 
[V:4] z2G,2A,2F,2 | 
[V:1] c8- | 
[V:2] G2c3de2 | 
[V:3] C4F2E2 | 
[V:4] C3B,A,2G,2 | 
[V:1] c8- | 
[V:2] f8 | 
[V:3] A8 | 
[V:4] F,8 | 
[V:1] c8 |]  
[V:2] e8 |]  
[V:3] G8 |]  
[V:4] C,8 |]  



